X: 129011
M: 2/4
L: 1/16
K: A
vcB |\
c2e2c2e2 | d2B2B2 (cB) |\
c2e2 dcdB | A2c2A2 H:|
|: (BA) |\
a2a2e2 (fg) | a2a2e2 (fg) |\
a2e2d2c2 | BABc Bdc"_D.C."B |]


